X: 937
T: Stranger at the Door
B: jims roots
M:2/4
L:1/16
Q: 1/4=100
K:F
V:1 
cB | "F"Acfg a2ga | "Bb"bagf d2cB | "F"Acfd cAFG | "C7"AGGA G2cB |
"F"Acfg "F7"a2ga | "Bb"bagf d2cB | "F"Acfa "C7"gfeg | "F"f2ag [A2f] :|
|:[K:Bb]Bc | "Bb"dFBd fdgd | [d4f]-[d2f]Bc | dFBd fdgd | [d4f]-[d2f]Bc |
"Bb"dFBd "Bb7"fdBd | "Eb"b2a2g2f2 | "F7"e2d2 cBAc | "Bb"Bdfd [d2b] :|
% abcbook-tune_id 6298c28779204c73a3214035


% abcbook-boost 0
% abcbook-tablature 
% abcbook-transpose 
% abcbook-lastupdated 1654178440987
% abcbook-soundfonts 
% abcbook-repeats 1


